floppy.svg

<svg fill="currentColor" viewBox="0 0 24 24"><path d="M5 3a2 2 0 0 0-2 2v14a2 2 0 0 0 2 2h14a2 2 0 0 0 2-2V5.5L18.5 3H17v6a1 1 0 0 1-1 1H8a1 1 0 0 1-1-1V3zm7 1v5h3V4zm-5 8h10a1 1 0 0 1 1 1v6H6v-6a1 1 0 0 1 1-1"/></svg>

<svg  viewBox="0 0 24 24" fill="currentColor"><path  d="M5,3A2,2 0 0,0 3,5V19A2,2 0 0,0 5,21H19A2,2 0 0,0 21,19V5.5L18.5,3H17V9A1,1 0 0,1 16,10H8A1,1 0 0,1 7,9V3H5M12,4V9H15V4H12M7,12H17A1,1 0 0,1 18,13V19H6V13A1,1 0 0,1 7,12Z"/></svg>
